icons/cross-reference-16.svg

<svg xmlns="http://www.w3.org/2000/svg" width="16" height="16" viewBox="0 0 16 16"><path fill-rule="evenodd" d="M16 1.25v4.146a.25.25 0 01-.427.177L14.03 4.03l-3.75 3.75a.75.75 0 11-1.06-1.06l3.75-3.75-1.543-1.543A.25.25 0 0111.604 1h4.146a.25.25 0 01.25.25zM2.75 3.5a.25.25 0 00-.25.25v7.5c0 .138.112.25.25.25h2a.75.75 0 01.75.75v2.19l2.72-2.72a.75.75 0 01.53-.22h4.5a.25.25 0 00.25-.25v-2.5a.75.75 0 111.5 0v2.5A1.75 1.75 0 0113.25 13H9.06l-2.573 2.573A1.457 1.457 0 014 14.543V13H2.75A1.75 1.75 0 011 11.25v-7.5C1 2.784 1.784 2 2.75 2h5.5a.75.75 0 010 1.5h-5.5z"/></svg>

<svg xmlns="http://www.w3.org/2000/svg" width="16" height="16" viewBox="0 0 16 16">
  <defs/>
  <path d="M2.75,3.5 C2.612,3.5 2.5,3.612 2.5,3.75 L2.5,11.25 C2.5,11.388 2.612,11.5 2.75,11.5 L4.75,11.5 C5.164,11.5 5.5,11.836 5.5,12.25 L5.5,14.44 L8.22,11.72 C8.361,11.579 8.551,11.5 8.75,11.5 L13.25,11.5 C13.388,11.5 13.5,11.388 13.5,11.25 L13.5,8.75 C13.5,8.336 13.836,8 14.25,8 C14.664,8 15,8.336 15,8.75 L15,11.25 C15,12.216 14.216,13 13.25,13 L9.06,13 L6.487,15.573 C6.07,15.989 5.444,16.114 4.899,15.889 C4.355,15.663 4,15.132 4,14.543 L4,13 L2.75,13 C1.784,13 1,12.216 1,11.25 L1,3.75 C1,2.784 1.784,2 2.75,2 L8.25,2 C8.664,2 9,2.336 9,2.75 C9,3.164 8.664,3.5 8.25,3.5 Z M16,1.25 L16,5.396 C16,5.497 15.939,5.589 15.846,5.627 C15.752,5.666 15.645,5.645 15.573,5.573 L14.03,4.03 L10.28,7.78 C10.093,7.981 9.811,8.063 9.546,7.995 C9.28,7.928 9.072,7.72 9.005,7.454 C8.937,7.189 9.019,6.907 9.22,6.72 L12.97,2.97 L11.427,1.427 C11.355,1.355 11.334,1.248 11.373,1.154 C11.411,1.061 11.503,1 11.604,1 L15.75,1 C15.888,1 16,1.112 16,1.25 Z"/>
</svg>
